X: 1739
T: COONEY'S HORNPIPE
M:2/4
L:1/16
B:O'NEILL'S 1739
N:"collected by J. O'Neill"
Z:Transcribed by A.LEE WORMAN
K:G
D2|G2GF GBdB|A^GAB cdef|gfgf ecAG|FGAF DEFD|
GFEF GBdB|A^GAB cdef|gfgf ecAF|G2G2 G2:|
(Bc)|dedc Bcdf|efed ^cdef|gfgf ecAG|FGAF DEFD|
GFEF GBdB|A^GAB cdef|gfgf ecAF|G2G2 G2:|


